assets/static/images/relate.svg

<svg width="16" height="22" viewBox="0 0 16 22" fill="none" xmlns="http://www.w3.org/2000/svg">
<mask id="path-1-inside-1" fill="white">
<path fill-rule="evenodd" clip-rule="evenodd" d="M7.50655 0.0100943C6.35118 0.166896 5.423 0.665422 4.48964 1.63042C3.20647 2.95706 2.35833 4.897 2.23076 6.79689C2.16576 7.76497 2.43336 8.3257 3.21982 8.86952C3.41539 9.00471 3.61029 9.14168 3.65296 9.17391C3.72605 9.22905 3.68583 9.28259 2.95574 10.1023C2.5296 10.5807 2.09951 11.0943 1.99994 11.2437C1.60691 11.8332 1.29755 12.6061 1.08207 13.5368C1.00633 13.8639 0.974963 14.1559 0.943474 14.8266C0.881208 16.1538 0.808196 16.4328 0.314057 17.2322C0.141245 17.5117 -7.89848e-05 17.7842 3.31197e-08 17.8376C0.000197578 17.9864 0.134449 18.1889 0.273955 18.2507C0.392285 18.3032 0.42077 18.295 0.776549 18.1059C1.42813 17.7597 1.8489 17.2276 2.34991 16.1163C2.69514 15.3506 2.8533 14.8709 3.0192 14.0865C3.23365 13.0727 3.41211 12.5532 3.73249 12.0099C4.06946 11.4384 4.77916 10.8129 5.42861 10.5149C5.58878 10.4414 5.61513 10.4382 5.59498 10.4945C5.58179 10.5312 5.34616 10.9454 5.07137 11.4148C4.79659 11.8841 4.49549 12.4265 4.40229 12.62C4.04706 13.3573 3.87283 14.0564 3.78927 15.0796C3.73052 15.7989 3.75485 16.2148 3.91297 17.1946C4.0202 17.8589 4.03604 18.044 4.01786 18.421C3.99313 18.9336 3.9458 19.1217 3.64731 19.893C3.4457 20.4141 3.43325 20.4655 3.47955 20.5852C3.53483 20.728 3.7257 20.8732 3.85841 20.8735C3.9776 20.8737 4.52172 20.432 4.77087 20.1329C5.1575 19.6685 5.47918 18.8553 5.70727 17.7655C5.86621 17.006 5.92457 16.4466 5.92552 15.6723C5.92777 13.8926 6.23361 12.9119 7.0808 11.9674C7.38383 11.6295 8.00926 11.0795 8.04584 11.1186C8.05983 11.1336 7.42978 12.2468 7.02422 12.9236C6.80396 13.2913 6.52625 13.91 6.39887 14.3169C6.19584 14.9655 6.11409 15.5857 6.10872 16.518C6.10437 17.2766 6.11334 17.3917 6.22081 17.9558C6.31658 18.4584 6.33751 18.6719 6.33696 19.1399C6.33625 19.7824 6.27952 20.0277 5.94132 20.8513C5.84606 21.0832 5.76815 21.3054 5.76815 21.3449C5.76815 21.4503 5.94886 21.6626 6.08043 21.7117C6.22116 21.7641 6.31116 21.7186 6.70645 21.3951C7.36518 20.8561 7.73732 20.0595 8.05651 18.5056C8.20941 17.761 8.25718 17.2666 8.25745 16.4246C8.25809 14.5188 8.7171 13.3611 9.86341 12.3741C10.028 12.2323 10.1813 12.1229 10.2039 12.131C10.2555 12.1495 10.4307 12.6157 10.5734 13.1144C10.673 13.4627 10.6822 13.553 10.6832 14.1922C10.6842 14.8378 10.6761 14.9184 10.5744 15.2704C10.4281 15.7765 10.2188 16.2455 9.85923 16.8728C9.46994 17.552 9.25912 18.0446 9.01567 18.8439C8.68217 19.9386 8.61477 20.5826 8.76732 21.2158C8.93483 21.911 9.06672 22.07 9.39673 21.9749C9.57531 21.9235 9.6793 21.799 9.67997 21.636C9.68017 21.5772 9.72324 21.3043 9.77559 21.0294C9.92758 20.2318 10.0922 19.9194 10.8253 19.0366C11.0317 18.788 11.2901 18.4457 11.3995 18.2759C11.6459 17.8932 12.0506 17.0281 12.1858 16.5952C12.4069 15.887 12.412 15.8295 12.4443 13.7059C12.4608 12.6128 12.4767 11.7168 12.4795 11.7148C12.4823 11.7128 12.6669 11.7196 12.8896 11.7299C13.6214 11.7639 14.2559 11.5785 14.6427 11.2176C14.8737 11.0021 15.1475 10.5536 15.3114 10.1222C15.5033 9.61716 15.8218 8.24916 15.9252 7.48558C16.0425 6.61975 16.02 5.57461 15.8711 4.96855C15.5651 3.72344 14.8455 2.77117 13.4922 1.82059C12.0746 0.824889 10.7995 0.323444 9.09884 0.0928508C8.5853 0.0232457 7.73526 -0.0209447 7.50655 0.0100943Z"/>
</mask>
<path fill-rule="evenodd" clip-rule="evenodd" d="M7.50655 0.0100943C6.35118 0.166896 5.423 0.665422 4.48964 1.63042C3.20647 2.95706 2.35833 4.897 2.23076 6.79689C2.16576 7.76497 2.43336 8.3257 3.21982 8.86952C3.41539 9.00471 3.61029 9.14168 3.65296 9.17391C3.72605 9.22905 3.68583 9.28259 2.95574 10.1023C2.5296 10.5807 2.09951 11.0943 1.99994 11.2437C1.60691 11.8332 1.29755 12.6061 1.08207 13.5368C1.00633 13.8639 0.974963 14.1559 0.943474 14.8266C0.881208 16.1538 0.808196 16.4328 0.314057 17.2322C0.141245 17.5117 -7.89848e-05 17.7842 3.31197e-08 17.8376C0.000197578 17.9864 0.134449 18.1889 0.273955 18.2507C0.392285 18.3032 0.42077 18.295 0.776549 18.1059C1.42813 17.7597 1.8489 17.2276 2.34991 16.1163C2.69514 15.3506 2.8533 14.8709 3.0192 14.0865C3.23365 13.0727 3.41211 12.5532 3.73249 12.0099C4.06946 11.4384 4.77916 10.8129 5.42861 10.5149C5.58878 10.4414 5.61513 10.4382 5.59498 10.4945C5.58179 10.5312 5.34616 10.9454 5.07137 11.4148C4.79659 11.8841 4.49549 12.4265 4.40229 12.62C4.04706 13.3573 3.87283 14.0564 3.78927 15.0796C3.73052 15.7989 3.75485 16.2148 3.91297 17.1946C4.0202 17.8589 4.03604 18.044 4.01786 18.421C3.99313 18.9336 3.9458 19.1217 3.64731 19.893C3.4457 20.4141 3.43325 20.4655 3.47955 20.5852C3.53483 20.728 3.7257 20.8732 3.85841 20.8735C3.9776 20.8737 4.52172 20.432 4.77087 20.1329C5.1575 19.6685 5.47918 18.8553 5.70727 17.7655C5.86621 17.006 5.92457 16.4466 5.92552 15.6723C5.92777 13.8926 6.23361 12.9119 7.0808 11.9674C7.38383 11.6295 8.00926 11.0795 8.04584 11.1186C8.05983 11.1336 7.42978 12.2468 7.02422 12.9236C6.80396 13.2913 6.52625 13.91 6.39887 14.3169C6.19584 14.9655 6.11409 15.5857 6.10872 16.518C6.10437 17.2766 6.11334 17.3917 6.22081 17.9558C6.31658 18.4584 6.33751 18.6719 6.33696 19.1399C6.33625 19.7824 6.27952 20.0277 5.94132 20.8513C5.84606 21.0832 5.76815 21.3054 5.76815 21.3449C5.76815 21.4503 5.94886 21.6626 6.08043 21.7117C6.22116 21.7641 6.31116 21.7186 6.70645 21.3951C7.36518 20.8561 7.73732 20.0595 8.05651 18.5056C8.20941 17.761 8.25718 17.2666 8.25745 16.4246C8.25809 14.5188 8.7171 13.3611 9.86341 12.3741C10.028 12.2323 10.1813 12.1229 10.2039 12.131C10.2555 12.1495 10.4307 12.6157 10.5734 13.1144C10.673 13.4627 10.6822 13.553 10.6832 14.1922C10.6842 14.8378 10.6761 14.9184 10.5744 15.2704C10.4281 15.7765 10.2188 16.2455 9.85923 16.8728C9.46994 17.552 9.25912 18.0446 9.01567 18.8439C8.68217 19.9386 8.61477 20.5826 8.76732 21.2158C8.93483 21.911 9.06672 22.07 9.39673 21.9749C9.57531 21.9235 9.6793 21.799 9.67997 21.636C9.68017 21.5772 9.72324 21.3043 9.77559 21.0294C9.92758 20.2318 10.0922 19.9194 10.8253 19.0366C11.0317 18.788 11.2901 18.4457 11.3995 18.2759C11.6459 17.8932 12.0506 17.0281 12.1858 16.5952C12.4069 15.887 12.412 15.8295 12.4443 13.7059C12.4608 12.6128 12.4767 11.7168 12.4795 11.7148C12.4823 11.7128 12.6669 11.7196 12.8896 11.7299C13.6214 11.7639 14.2559 11.5785 14.6427 11.2176C14.8737 11.0021 15.1475 10.5536 15.3114 10.1222C15.5033 9.61716 15.8218 8.24916 15.9252 7.48558C16.0425 6.61975 16.02 5.57461 15.8711 4.96855C15.5651 3.72344 14.8455 2.77117 13.4922 1.82059C12.0746 0.824889 10.7995 0.323444 9.09884 0.0928508C8.5853 0.0232457 7.73526 -0.0209447 7.50655 0.0100943Z" fill="#c300be" stroke="#C300BE" stroke-width="1.5" stroke-linejoin="round" mask="url(#path-1-inside-1)"/>
</svg>

<svg width="16" height="22" fill="none" xmlns="http://www.w3.org/2000/svg"><mask id="a" fill="#fff"><path fill-rule="evenodd" clip-rule="evenodd" d="M7.507.01C6.35.167 5.423.665 4.49 1.63 3.206 2.957 2.358 4.897 2.23 6.797c-.064.968.203 1.529.99 2.073.195.135.39.272.433.304.073.055.033.109-.697.928-.426.479-.856.992-.956 1.142-.393.59-.702 1.362-.918 2.293-.076.327-.107.619-.139 1.29-.062 1.327-.135 1.606-.629 2.405-.173.28-.314.552-.314.606a.53.53 0 00.274.413c.118.052.147.044.503-.145.651-.346 1.072-.878 1.573-1.99a8.675 8.675 0 00.67-2.03c.214-1.013.392-1.533.712-2.076.337-.572 1.047-1.197 1.697-1.495.16-.074.186-.077.166-.02-.013.036-.249.45-.524.92a25.76 25.76 0 00-.669 1.205c-.355.737-.53 1.436-.613 2.46-.058.719-.034 1.135.124 2.115.107.664.123.849.105 1.226-.025.513-.072.7-.37 1.472-.202.521-.215.572-.168.692.055.143.246.288.378.288.12 0 .664-.441.913-.74.386-.464.708-1.278.936-2.367.16-.76.218-1.32.219-2.094.002-1.78.308-2.76 1.155-3.705.303-.338.928-.888.965-.848.014.015-.616 1.128-1.022 1.805-.22.367-.498.986-.625 1.393-.203.649-.285 1.269-.29 2.201-.005.759.004.874.112 1.438.096.502.117.716.116 1.184 0 .642-.057.888-.396 1.711-.095.232-.173.454-.173.494 0 .105.18.318.312.367.141.052.231.007.626-.317.66-.539 1.031-1.335 1.35-2.89.153-.744.201-1.238.201-2.08.001-1.906.46-3.064 1.606-4.05.165-.143.318-.252.34-.244.053.018.228.485.37.983.1.349.11.439.11 1.078.001.646-.007.726-.109 1.078-.146.507-.355.976-.715 1.603-.39.679-.6 1.172-.843 1.97-.334 1.096-.401 1.74-.249 2.373.168.695.3.854.63.759.178-.052.282-.176.283-.339 0-.059.043-.332.096-.607.152-.797.316-1.11 1.05-1.992.206-.249.464-.591.573-.761a9.43 9.43 0 00.787-1.68c.22-.709.226-.767.258-2.89a196.6 196.6 0 01.035-1.991c.003-.002.188.005.41.015.732.034 1.367-.152 1.754-.512.23-.216.505-.664.668-1.096.192-.505.51-1.873.614-2.636.117-.866.095-1.911-.054-2.517-.306-1.246-1.026-2.198-2.379-3.148C12.075.825 10.8.323 9.1.093 8.585.023 7.735-.021 7.507.01z"/></mask><path fill-rule="evenodd" clip-rule="evenodd" d="M7.507.01C6.35.167 5.423.665 4.49 1.63 3.206 2.957 2.358 4.897 2.23 6.797c-.064.968.203 1.529.99 2.073.195.135.39.272.433.304.073.055.033.109-.697.928-.426.479-.856.992-.956 1.142-.393.59-.702 1.362-.918 2.293-.076.327-.107.619-.139 1.29-.062 1.327-.135 1.606-.629 2.405-.173.28-.314.552-.314.606a.53.53 0 00.274.413c.118.052.147.044.503-.145.651-.346 1.072-.878 1.573-1.99a8.675 8.675 0 00.67-2.03c.214-1.013.392-1.533.712-2.076.337-.572 1.047-1.197 1.697-1.495.16-.074.186-.077.166-.02-.013.036-.249.45-.524.92a25.76 25.76 0 00-.669 1.205c-.355.737-.53 1.436-.613 2.46-.058.719-.034 1.135.124 2.115.107.664.123.849.105 1.226-.025.513-.072.7-.37 1.472-.202.521-.215.572-.168.692.055.143.246.288.378.288.12 0 .664-.441.913-.74.386-.464.708-1.278.936-2.367.16-.76.218-1.32.219-2.094.002-1.78.308-2.76 1.155-3.705.303-.338.928-.888.965-.848.014.015-.616 1.128-1.022 1.805-.22.367-.498.986-.625 1.393-.203.649-.285 1.269-.29 2.201-.005.759.004.874.112 1.438.096.502.117.716.116 1.184 0 .642-.057.888-.396 1.711-.095.232-.173.454-.173.494 0 .105.18.318.312.367.141.052.231.007.626-.317.66-.539 1.031-1.335 1.35-2.89.153-.744.201-1.238.201-2.08.001-1.906.46-3.064 1.606-4.05.165-.143.318-.252.34-.244.053.018.228.485.37.983.1.349.11.439.11 1.078.001.646-.007.726-.109 1.078-.146.507-.355.976-.715 1.603-.39.679-.6 1.172-.843 1.97-.334 1.096-.401 1.74-.249 2.373.168.695.3.854.63.759.178-.052.282-.176.283-.339 0-.059.043-.332.096-.607.152-.797.316-1.11 1.05-1.992.206-.249.464-.591.573-.761a9.43 9.43 0 00.787-1.68c.22-.709.226-.767.258-2.89a196.6 196.6 0 01.035-1.991c.003-.002.188.005.41.015.732.034 1.367-.152 1.754-.512.23-.216.505-.664.668-1.096.192-.505.51-1.873.614-2.636.117-.866.095-1.911-.054-2.517-.306-1.246-1.026-2.198-2.379-3.148C12.075.825 10.8.323 9.1.093 8.585.023 7.735-.021 7.507.01z" fill="#c300be" stroke="#C300BE" stroke-width="1.5" stroke-linejoin="round" mask="url(#a)"/></svg>
